build/img/features/feature-1.svg

<svg width="100" height="87" viewBox="0 0 100 87" fill="none" xmlns="http://www.w3.org/2000/svg">
<path d="M2 85H98" stroke="#5D5D5D" stroke-width="4" stroke-linecap="round" stroke-linejoin="round"/>
<path d="M2 71H98" stroke="#5D5D5D" stroke-width="4" stroke-linecap="round" stroke-linejoin="round"/>
<path d="M2 78.2H98" stroke="#5D5D5D" stroke-width="4" stroke-linecap="round" stroke-linejoin="round" stroke-dasharray="10 10"/>
<path d="M22 5C22 2.79086 23.7909 1 26 1H73C75.2091 1 77 2.79086 77 5V52C77 54.2091 75.2091 56 73 56H26C23.7909 56 22 54.2091 22 52V5Z" fill="#5D5D5D" stroke="#5D5D5D" stroke-width="2" stroke-linecap="round" stroke-linejoin="round"/>
<path d="M44.9032 11.9517V13.7904H34.7903V23.9033H32.9516V25.742H34.7903V27.5807H32.9516V29.4194H34.7903V31.2581H32.9516V33.0968H34.7903V43.2097H44.9032V45.0484H46.7419V43.2097H48.5806V45.0484H50.4193V43.2097H52.2581V45.0484H54.0968V43.2097H64.2097V33.0968H66.0484V31.2581H64.2097V29.4194H66.0484V27.5807H64.2097V25.742H66.0484V23.9033H64.2097V13.7904H54.0968V11.9517H52.2581V13.7904H50.4193V11.9517H48.5806V13.7904H46.7419V11.9517H44.9032ZM48.5806 15.6291V17.4678H50.4193V15.6291H52.2581V17.4678H54.0968V15.6291H62.371V23.9033H60.5322V25.742H62.371V27.5807H60.5322V29.4194H62.371V31.2581H60.5322V33.0968H62.371V41.371H54.0968V39.5323H52.2581V41.371H50.4193V39.5323H48.5806V41.371H46.7419V39.5323H44.9032V41.371H36.629V33.0968H38.4677V31.2581H36.629V29.4194H38.4677V27.5807H36.629V25.742H38.4677V23.9033H36.629V15.6291H44.9032V17.4678H46.7419V15.6291H48.5806Z" fill="#07BBF0"/>
</svg>

<svg width="100" height="87" fill="none" xmlns="http://www.w3.org/2000/svg"><path d="M2 85h96M2 71h96" stroke="#5D5D5D" stroke-width="4" stroke-linecap="round" stroke-linejoin="round"/><path d="M2 78.2h96" stroke="#5D5D5D" stroke-width="4" stroke-linecap="round" stroke-linejoin="round" stroke-dasharray="10 10"/><path d="M22 5a4 4 0 0 1 4-4h47a4 4 0 0 1 4 4v47a4 4 0 0 1-4 4H26a4 4 0 0 1-4-4V5z" fill="#5D5D5D" stroke="#5D5D5D" stroke-width="2" stroke-linecap="round" stroke-linejoin="round"/><path d="M44.903 11.952v1.838H34.79v10.113h-1.838v1.839h1.838v1.839h-1.838v1.838h1.838v1.84h-1.838v1.838h1.838V43.21h10.113v1.838h1.839V43.21h1.839v1.838h1.838V43.21h1.84v1.838h1.838V43.21H64.21V33.097h1.838v-1.839H64.21V29.42h1.838v-1.838H64.21v-1.839h1.838v-1.839H64.21V13.79H54.097v-1.838h-1.839v1.838H50.42v-1.838h-1.838v1.838h-1.84v-1.838h-1.838zm3.678 3.677v1.839h1.838v-1.839h1.84v1.839h1.838v-1.839h8.274v8.274h-1.839v1.839h1.839v1.839h-1.839v1.838h1.839v1.84h-1.839v1.838h1.839v8.274h-8.274v-1.839h-1.839v1.839H50.42v-1.839h-1.838v1.839h-1.84v-1.839h-1.838v1.839H36.63v-8.274h1.839v-1.839h-1.839V29.42h1.839v-1.838h-1.839v-1.839h1.839v-1.839h-1.839V15.63h8.274v1.839h1.839v-1.839h1.839z" fill="#07BBF0"/></svg>
